storage/app/icons/phosphoricons/bold/scan-smiley-bold.svg

<svg xmlns="http://www.w3.org/2000/svg" fill="currentColor" viewBox="0 0 256 256"><path d="M228 40v28a12 12 0 0 1-24 0V52h-16a12 12 0 0 1 0-24h28a12 12 0 0 1 12 12m-12 136a12 12 0 0 0-12 12v16h-16a12 12 0 0 0 0 24h28a12 12 0 0 0 12-12v-28a12 12 0 0 0-12-12M68 204H52v-16a12 12 0 0 0-24 0v28a12 12 0 0 0 12 12h28a12 12 0 0 0 0-24M40 80a12 12 0 0 0 12-12V52h16a12 12 0 0 0 0-24H40a12 12 0 0 0-12 12v28a12 12 0 0 0 12 12m88 128a80 80 0 1 1 80-80 80.09 80.09 0 0 1-80 80m56-80a56 56 0 1 0-56 56 56.06 56.06 0 0 0 56-56m-80-24a16 16 0 1 0 16 16 16 16 0 0 0-16-16m48 0a16 16 0 1 0 16 16 16 16 0 0 0-16-16"/></svg>

<svg xmlns="http://www.w3.org/2000/svg" viewBox="0 0 256 256" fill="currentColor"><path d="M228,40V68a12,12,0,0,1-24,0V52H188a12,12,0,0,1,0-24h28A12,12,0,0,1,228,40ZM216,176a12,12,0,0,0-12,12v16H188a12,12,0,0,0,0,24h28a12,12,0,0,0,12-12V188A12,12,0,0,0,216,176ZM68,204H52V188a12,12,0,0,0-24,0v28a12,12,0,0,0,12,12H68a12,12,0,0,0,0-24ZM40,80A12,12,0,0,0,52,68V52H68a12,12,0,0,0,0-24H40A12,12,0,0,0,28,40V68A12,12,0,0,0,40,80Zm88,128a80,80,0,1,1,80-80A80.09,80.09,0,0,1,128,208Zm56-80a56,56,0,1,0-56,56A56.06,56.06,0,0,0,184,128Zm-80-24a16,16,0,1,0,16,16A16,16,0,0,0,104,104Zm48,0a16,16,0,1,0,16,16A16,16,0,0,0,152,104Z"/></svg>
